X: 17
T:Belfast Almanac
% Nottingham Music Database
S:Trad, arr Phil Rowe
M:6/8
K:G
D|"G"G2G "D7"FED|"C"E2F G2A|"G"B2G "D7"c2A|"G"B2G "D7"c2A|
"G"B3/2c/2d "Am"E2E|"A7"ABG "D7"FED|"C"EFG "D7"AFD|"G"G3 -G2::
c|"G"Bcd def|g2g g3|"G"B2B Bcd|"C"e2e e3|
"G"dcB "C"cde|"G"dBd D2D|"C"EFG "D7"AFD|"G"G3 -G2::
A|"G"B2G "D7"c2A|"G"B2G "D7"c2A|"G"Bcd "C"E2E|"A7"ABG "D7"FED|
"G"B2G "D7"c2A|"G"B2G Bcd|"C"EFG "D7"AFD|"G"G3 -G2:|<end>
<start>
